src/assets/outline/Bill.svg

<svg width="24" height="24" viewBox="0 0 24 24"  xmlns="http://www.w3.org/2000/svg">
<path d="M11.9999 22.2498C11.1799 22.2498 10.3599 21.9898 9.6799 21.4798L4.46991 17.5798C3.49991 16.8498 2.91992 15.6898 2.91992 14.4798V1.75977H21.0799V14.4798C21.0799 15.6898 20.4999 16.8498 19.5299 17.5798L14.3199 21.4798C13.6399 21.9898 12.8199 22.2498 11.9999 22.2498ZM4.41992 3.24977V14.4698C4.41992 15.2098 4.7799 15.9198 5.3699 16.3698L10.5799 20.2698C11.4199 20.8998 12.5899 20.8998 13.4299 20.2698L18.6399 16.3698C19.2299 15.9198 19.5899 15.2098 19.5899 14.4698V3.24977H4.41992Z" />
<path d="M22 3.25H2C1.59 3.25 1.25 2.91 1.25 2.5C1.25 2.09 1.59 1.75 2 1.75H22C22.41 1.75 22.75 2.09 22.75 2.5C22.75 2.91 22.41 3.25 22 3.25Z" />
<path d="M16 8.75H8C7.59 8.75 7.25 8.41 7.25 8C7.25 7.59 7.59 7.25 8 7.25H16C16.41 7.25 16.75 7.59 16.75 8C16.75 8.41 16.41 8.75 16 8.75Z" />
<path d="M16 13.75H8C7.59 13.75 7.25 13.41 7.25 13C7.25 12.59 7.59 12.25 8 12.25H16C16.41 12.25 16.75 12.59 16.75 13C16.75 13.41 16.41 13.75 16 13.75Z" />
</svg>

<?xml version="1.0" encoding="UTF-8"?>
<svg width="24" height="24" viewBox="0 0 24 24" xmlns="http://www.w3.org/2000/svg">
 <path d="m12 22.25c-0.82 0-1.64-0.26-2.32-0.77l-5.21-3.9c-0.97-0.73-1.55-1.89-1.55-3.1v-12.72h18.16v12.72c0 1.21-0.58 2.37-1.55 3.1l-5.21 3.9c-0.68 0.51-1.5 0.77-2.32 0.77zm-7.58-19v11.22c0 0.74 0.35998 1.45 0.94998 1.9l5.21 3.9c0.84 0.63 2.01 0.63 2.85 0l5.21-3.9c0.59-0.45 0.95-1.16 0.95-1.9v-11.22h-15.17z"/>
 <path d="m22 3.25h-20c-0.41 0-0.75-0.34-0.75-0.75s0.34-0.75 0.75-0.75h20c0.41 0 0.75 0.34 0.75 0.75s-0.34 0.75-0.75 0.75z"/>
 <path d="m16 8.75h-8c-0.41 0-0.75-0.34-0.75-0.75s0.34-0.75 0.75-0.75h8c0.41 0 0.75 0.34 0.75 0.75s-0.34 0.75-0.75 0.75z"/>
 <path d="m16 13.75h-8c-0.41 0-0.75-0.34-0.75-0.75s0.34-0.75 0.75-0.75h8c0.41 0 0.75 0.34 0.75 0.75s-0.34 0.75-0.75 0.75z"/>
</svg>
